!!!COM: Beethoven
!!!OTL: 7 Variations on a Quartet by Winter
!!!Variation: Variation 4 b
**function	**harm	**kern	**kern
*	*	*clefF4	*clefG2
*	*	*k[b-]	*k[b-]
*M2/4	*M2/4	*M2/4	*M2/4
*F:	*F:	*F:	*F:
4T	B-:maj	8F'	[4cc
.	.	8r	.
=205	=205	=205	=205
2T	B-:maj	(8FL 8A	24ccLL]
.	.	.	24a
.	.	.	24b-J
.	.	8CJ	24ccL
.	.	.	24dd
.	.	.	24eeJJ
.	.	8FL 8A	24ffLL
.	.	.	24ee
.	.	.	24ddJ
.	.	8CJ	24ccL
.	.	.	24b-
.	.	.	24aJJ)
=206	=206	=206	=206
4T	F:7/3	8EL 8G	(24b-LL
.	.	.	24a
.	.	.	24b-J
.	.	8CJ	24ccL
.	.	.	24b
.	.	.	24ccJJ
4T	B-:maj	8FL 8A	24aLL
.	.	.	24g#
.	.	.	24aJ
.	.	8CJ)	24ccL
.	.	.	24b
.	.	.	24ccJJ)
=207	=207	=207	=207
8T	F:7/5	(8GL 8B-	(24gLL
.	.	.	24b
.	.	.	24ccJ
8T	B-:maj/3	8AJ 8c	24fL
.	.	.	24b
.	.	.	24ccJJ
8T	F:7/b7	8B-L 8d-	24eLL
.	.	.	24b
.	.	.	24ccJ
8T	B-:maj/3	8AJ 8c	24fL
.	.	.	24b
.	.	.	24ccJJ)
=208	=208	=208	=208
4T	C:min	8GL 8B-	(4g
.	.	8FJ 8A	.
4T	F:maj	8EL 8G	[4cc
.	.	8CJ) 8E	.
=209	=209	=209	=209
2T	B-:maj	(8FL 8A	24ccLL]
.	.	.	24a
.	.	.	24b-J
.	.	8CJ	24ccL
.	.	.	24dd
.	.	.	24eeJJ
.	.	8FL 8A	24ffLL
.	.	.	24ee
.	.	.	24ddJ
.	.	8CJ	24ccL
.	.	.	24b-
.	.	.	24aJJ)
=210	=210	=210	=210
4T	F:7/3	8EL 8G	(24b-LL
.	.	.	24a
.	.	.	24b-J
.	.	8CJ	24ggL
.	.	.	24ff#
.	.	.	24ggJJ
4T	B-:maj	8FL 8A	24aLL
.	.	.	24g#
.	.	.	24aJ
.	.	8CJ)	24ffL
.	.	.	24ee
.	.	.	24ffJJ)
=211	=211	=211	=211
8P	C:min	8GL 8c	(24gLL
.	.	.	24f#
.	.	.	24gJ
8P	F:maj	8CJ	24eeL
.	.	.	24dd#
.	.	.	24eeJJ
4P	E:min7/b7	8A-L 8B	24fLL
.	.	.	24e
.	.	.	24fJ
.	.	8CJ	24ddL
.	.	.	24cc#
.	.	.	24ddJJ)
=212	=212	=212	=212
4D	F:maj/5	8GL 8c	24eLL
.	.	.	24d#
.	.	.	24eJ
.	.	8CJ	24ccL
.	.	.	24b
.	.	.	24ccJJ
4D	C:7	8GL 8c	24fLL
.	.	.	24cc#
.	.	.	24ddJ
.	.	8CJ	24gL
.	.	.	24dd#
.	.	.	24eeJJ
=213	=213	=213	=213
4D	F:maj/3	8EL 8G 8c	24ccLL
.	.	.	24b
.	.	.	24ccJ
.	.	8CJ	24ggL
.	.	.	24ff#
.	.	.	24ggJJ
4D	C:7/3	8DL 8F 8B	24bLL
.	.	.	24a#
.	.	.	24bJ
.	.	8CJ	24ggL
.	.	.	24ff#
.	.	.	24ggJJ
=214	=214	=214	=214
4D	F:maj/3	8EL 8G 8c	24eLL
.	.	.	24d#
.	.	.	24eJ
.	.	8CJ	24ccL
.	.	.	24b
.	.	.	24ccJJ
4D	C:7/3	8GL 8c	24fLL
.	.	.	24cc#
.	.	.	24ddJ
.	.	8CJ	24gL
.	.	.	24dd#
.	.	.	24eeJJ
=215	=215	=215	=215
4D	F:maj/3	8EL 8G 8c	24ccLL
.	.	.	24b
.	.	.	24ccJ
.	.	8CJ	24ggL
.	.	.	24ff#
.	.	.	24ggJJ
4D	C:7/3	8DL 8F 8B	24bLL
.	.	.	24a#
.	.	.	24bJ
.	.	8CJ	24ggL
.	.	.	24ff#
.	.	.	24ggJJ
=216	=216	=216	=216
4D	F:maj	4C; 4E; 4G; 4c;	4cc;
*-	*-	*-	*-
!!!EMD: Edited in humdrumR 0.7.0.3 on 2024-01-19
